z_dist/img/icons/trash.svg

<svg width="25" height="25" viewBox="0 0 25 25" fill="none" xmlns="http://www.w3.org/2000/svg">
<g clip-path="url(#clip0_377_1900)">
<path d="M18.75 5H25V7.5H22.5V23.75C22.5 24.0815 22.3683 24.3995 22.1339 24.6339C21.8995 24.8683 21.5815 25 21.25 25H3.75C3.41848 25 3.10054 24.8683 2.86612 24.6339C2.6317 24.3995 2.5 24.0815 2.5 23.75V7.5H0V5H6.25V1.25C6.25 0.918483 6.3817 0.600541 6.61612 0.36612C6.85054 0.1317 7.16848 3.8147e-06 7.5 3.8147e-06H17.5C17.8315 3.8147e-06 18.1495 0.1317 18.3839 0.36612C18.6183 0.600541 18.75 0.918483 18.75 1.25V5ZM20 7.5H5V22.5H20V7.5ZM8.75 11.25H11.25V18.75H8.75V11.25ZM13.75 11.25H16.25V18.75H13.75V11.25ZM8.75 2.5V5H16.25V2.5H8.75Z" fill="#E0BEA2"/>
</g>
<defs>
<clipPath id="clip0_377_1900">
<rect width="25" height="25" fill="white"/>
</clipPath>
</defs>
</svg>

<svg width="25" height="25" fill="none" xmlns="http://www.w3.org/2000/svg"><g clip-path="url(#clip0_377_1900)"><path d="M18.75 5H25v2.5h-2.5v16.25A1.25 1.25 0 0121.25 25H3.75a1.25 1.25 0 01-1.25-1.25V7.5H0V5h6.25V1.25A1.25 1.25 0 017.5 0h10a1.25 1.25 0 011.25 1.25V5zM20 7.5H5v15h15v-15zM8.75 11.25h2.5v7.5h-2.5v-7.5zm5 0h2.5v7.5h-2.5v-7.5zm-5-8.75V5h7.5V2.5h-7.5z" fill="#E0BEA2"/></g><defs><clipPath id="clip0_377_1900"><path fill="#fff" d="M0 0h25v25H0z"/></clipPath></defs></svg>
